X:107
M:C
L:1/8
K:D
d2 fd gecA | dfed cBAG | FAdc Bc d2 | efgf ecBA | d2 fd gecA |
dfed cBAG | FAdc Bbag | fedc {c}d4::d2 fd cecA | BdBA {A}^G2 FE |

